app/dist/common/images/truist-financial.svg

<svg height="18" width="18" xmlns="http://www.w3.org/2000/svg"><path d="m0 0h18v18h-18z" fill="#3f0270"/><path d="m13 5h-8v3.5h2v-1.5h1v4h-1v-1.5h-2v3.5h8v-3.5h-2v1.5h-1v-4h1v1.5h2zm-8-1a1 1 0 0 0 -1 1v8a1 1 0 0 0 1 1h8a1 1 0 0 0 1-1v-8a1 1 0 0 0 -1-1z" fill="#fff" fill-rule="evenodd"/></svg>

<!-- by TradingView --><svg xmlns="http://www.w3.org/2000/svg" width="18" height="18"><path fill="#3F0270" d="M0 0h18v18H0z"/><path fill-rule="evenodd" d="M13 5H5v3.5h2V7h1v4H7V9.5H5V13h8V9.5h-2V11h-1V7h1v1.5h2V5zM5 4a1 1 0 00-1 1v8a1 1 0 001 1h8a1 1 0 001-1V5a1 1 0 00-1-1H5z" fill="#fff"/></svg>
